svgs/sharp-regular/bread-slice.svg

<svg xmlns="http://www.w3.org/2000/svg" viewBox="0 0 512 512"><!--! Font Awesome Pro 6.6.0 by @fontawesome - https://fontawesome.com License - https://fontawesome.com/license (Commercial License) Copyright 2024 Fonticons, Inc. --><path d="M112 208l0 48 0 176 288 0 0-176 0-48 48 0c8.8 0 16-7.2 16-16c0-34.5-24.6-62.3-74.9-83.9C340.2 87.2 282.8 80 256 80s-84.2 7.2-133.1 28.1C72.6 129.7 48 157.5 48 192c0 8.8 7.2 16 16 16l48 0zM448 432l0 48-48 0-288 0-48 0 0-48 0-128 0-48c-35.3 0-64-28.7-64-64C0 64 192 32 256 32s256 32 256 160c0 35.3-28.7 64-64 64l0 48 0 128z"/></svg>

<svg xmlns="http://www.w3.org/2000/svg" viewBox="0 0 512 512"><!--! Font Awesome Pro 6.4.0 by @fontawesome - https://fontawesome.com License - https://fontawesome.com/license (Commercial License) Copyright 2023 Fonticons, Inc. --><path d="M112 208v48V432H400V256 208h48c8.8 0 16-7.2 16-16c0-34.5-24.6-62.3-74.9-83.9C340.2 87.2 282.8 80 256 80s-84.2 7.2-133.1 28.1C72.6 129.7 48 157.5 48 192c0 8.8 7.2 16 16 16h48zM448 432v48H400 112 64V432 304 256c-35.3 0-64-28.7-64-64C0 64 192 32 256 32s256 32 256 160c0 35.3-28.7 64-64 64v48V432z"/></svg>
